resources/svg/trash.svg

<svg viewBox="0 0 24 24"><path fill="none" stroke="currentColor" stroke-width="2" d="M4 5h16v18H4V5zM1 5h22M9 1h6v4H9V1zm0 0h6v4H9V1zm6 8v10M9 9v10"/></svg>

<svg xmlns="http://www.w3.org/2000/svg" viewBox="0 0 24 24" fill="currentColor"><path fill="none" stroke="currentColor" stroke-width="2" d="M4,5 L20,5 L20,23 L4,23 L4,5 Z M1,5 L23,5 M9,1 L15,1 L15,5 L9,5 L9,1 Z M9,1 L15,1 L15,5 L9,5 L9,1 Z M15,9 L15,19 M9,9 L9,19"/></svg>
